X: 31
T:Da Merry Boys o' Greenland
M:4/4
L:1/8
R:Reel
O:Shetland
K:D
"D"ABde fd f2|"A"eece Aece|"D"ABde fd f2|"A"gecA "D"d2 d2:||!
|:"D"fgfe fg a2|"A"gfec ef g2|"D"fgfe fgaf|"A"gecA "D"d2 d2:||
